X: 18346
T: Humours Of Whiskey, The
R: slip jig
M: 9/8
K: Bminor
|:gfe fBB fBB|gfe fBB fga|gbe fBB fBB|agf efd cBA:|
|:[D2d2] e fdf ecA|[D2d2] e fdf gfe|[D2d2] e fdf efg|agf efd cBA:|

